svg/blobs-icons/no-decorations/ink-pen.svg

<svg xmlns="http://www.w3.org/2000/svg" xmlns:xlink="http://www.w3.org/1999/xlink" preserveAspectRatio="xMidYMid" width="217" height="212" viewBox="0 0 217 212"><defs><style>.cls-3{fill:#2476ff}.cls-4{fill:#020403;opacity:.35}.cls-7{fill:#142a3b}</style></defs><g id="group-110svg"><path d="M207.599 211.469S105.126 198.654 97.372 196.007L62.463 131.45C61.969 130.532 61.353 129.692 60.614 128.963 56.256 124.595 56.482 117.26 61.118 112.616L112.33 61.265C116.828 56.787 124.422 56.551 128.604 60.772 129.346 61.511 130.177 62.13 131.09 62.643l64.426 34.992C199.436 109.03 213.765 162.285 216.883 206.444L163.166 155.99C167.645 148.256 166.651 138.237 160.031 131.622 152.15 123.731 139.361 123.731 131.473 131.622 123.582 139.513 123.592 152.303 131.473 160.194 138.088 166.791 148.113 167.794 155.841 163.317l51.758 48.152z" id="path-1" class="cls-3" fill-rule="evenodd"/><path d="M131.473 131.622C139.361 123.73 152.15 123.73 160.032 131.622 160.925 132.515 161.697 133.478 162.385 134.482 162.985 128.674 161.141 122.677 156.681 118.22c-7.881-7.892-20.67-7.892-28.558.0C121.136 125.208 120.371 136.02 125.751 143.887 126.199 139.412 128.044 135.051 131.473 131.622z" id="path-2" class="cls-4" fill-rule="evenodd"/><path d="M94.022 182.607s-34.909-64.56-34.909-64.56C58.901 117.654 58.577 117.344 58.32 116.981 56.744 121.103 57.463 125.804 60.614 128.963 61.353 129.692 61.969 130.532 62.463 131.45l34.909 64.557C105.126 198.654 207.599 211.469 207.599 211.469s-16.144-15.019-16.144-15.019C163.727 192.919 100.069 184.671 94.022 182.607z" id="path-3" class="cls-4" fill-rule="evenodd"/><path d="M200.627 115.344C205.863 137.32 211.679 166.788 213.532 193.042l-47.826-44.92C165.392 150.852 164.585 153.538 163.166 155.99l53.717 50.454C214.617 174.359 206.436 137.488 200.627 115.344z" id="path-4" class="cls-4" fill-rule="evenodd"/><path d="M80.14-.009c4.437 1.811 12.459 6.606 21.583 15.667 9.125 9.091 13.931 17.035 15.76 21.432l-80.17 79.639C32.913 114.916 24.894 110.152 15.75 101.064 6.628 92.004 1.835 84.017.009 79.646L80.14-.009z" id="path-5" class="cls-7" fill-rule="evenodd"/><path d="M40.663 96.627C36.263 94.813 28.244 90.05 19.099 80.962 15.165 77.054 12.079 73.371 9.646 70.066L.009 79.646c1.826 4.371 6.619 12.357 15.741 21.418C24.894 110.152 32.913 114.916 37.313 116.729l80.17-79.639c-1.039-2.499-3.084-6.171-6.295-10.521L40.663 96.627z" id="path-6" class="cls-4" fill-rule="evenodd"/></g></svg>

<svg xmlns="http://www.w3.org/2000/svg" xmlns:xlink="http://www.w3.org/1999/xlink" preserveAspectRatio="xMidYMid" width="217" height="212" viewBox="0 0 217 212">
  <defs>
    <style>

      .cls-3 {
        fill: #2476ff;
      }

      .cls-4 {
        fill: #020403;
        opacity: 0.35;
      }

      .cls-7 {
        fill: #142a3b;
      }
    </style>
  </defs>
  <g id="group-110svg">
    <path d="M207.599,211.469 C207.599,211.469 105.126,198.654 97.372,196.007 C97.372,196.007 62.463,131.450 62.463,131.450 C61.969,130.532 61.353,129.692 60.614,128.963 C56.256,124.595 56.482,117.260 61.118,112.616 C61.118,112.616 112.330,61.265 112.330,61.265 C116.828,56.787 124.422,56.551 128.604,60.772 C129.346,61.511 130.177,62.130 131.090,62.643 C131.090,62.643 195.516,97.635 195.516,97.635 C199.436,109.030 213.765,162.285 216.883,206.444 C216.883,206.444 163.166,155.990 163.166,155.990 C167.645,148.256 166.651,138.237 160.031,131.622 C152.150,123.731 139.361,123.731 131.473,131.622 C123.582,139.513 123.592,152.303 131.473,160.194 C138.088,166.791 148.113,167.794 155.841,163.317 C155.841,163.317 207.599,211.469 207.599,211.469 Z" id="path-1" class="cls-3" fill-rule="evenodd"/>
    <path d="M131.473,131.622 C139.361,123.730 152.150,123.730 160.032,131.622 C160.925,132.515 161.697,133.478 162.385,134.482 C162.985,128.674 161.141,122.677 156.681,118.220 C148.800,110.328 136.011,110.328 128.123,118.220 C121.136,125.208 120.371,136.020 125.751,143.887 C126.199,139.412 128.044,135.051 131.473,131.622 Z" id="path-2" class="cls-4" fill-rule="evenodd"/>
    <path d="M94.022,182.607 C94.022,182.607 59.113,118.047 59.113,118.047 C58.901,117.654 58.577,117.344 58.320,116.981 C56.744,121.103 57.463,125.804 60.614,128.963 C61.353,129.692 61.969,130.532 62.463,131.450 C62.463,131.450 97.372,196.007 97.372,196.007 C105.126,198.654 207.599,211.469 207.599,211.469 C207.599,211.469 191.455,196.450 191.455,196.450 C163.727,192.919 100.069,184.671 94.022,182.607 Z" id="path-3" class="cls-4" fill-rule="evenodd"/>
    <path d="M200.627,115.344 C205.863,137.320 211.679,166.788 213.532,193.042 C213.532,193.042 165.706,148.122 165.706,148.122 C165.392,150.852 164.585,153.538 163.166,155.990 C163.166,155.990 216.883,206.444 216.883,206.444 C214.617,174.359 206.436,137.488 200.627,115.344 Z" id="path-4" class="cls-4" fill-rule="evenodd"/>
    <path d="M80.140,-0.009 C84.577,1.802 92.599,6.597 101.723,15.658 C110.848,24.749 115.654,32.693 117.483,37.090 C117.483,37.090 37.313,116.729 37.313,116.729 C32.913,114.916 24.894,110.152 15.750,101.064 C6.628,92.004 1.835,84.017 0.009,79.646 C0.009,79.646 80.140,-0.009 80.140,-0.009 Z" id="path-5" class="cls-7" fill-rule="evenodd"/>
    <path d="M40.663,96.627 C36.263,94.813 28.244,90.050 19.099,80.962 C15.165,77.054 12.079,73.371 9.646,70.066 C9.646,70.066 0.009,79.646 0.009,79.646 C1.835,84.017 6.628,92.003 15.750,101.064 C24.894,110.152 32.913,114.916 37.313,116.729 C37.313,116.729 117.483,37.090 117.483,37.090 C116.444,34.591 114.399,30.919 111.188,26.569 C111.188,26.569 40.663,96.627 40.663,96.627 Z" id="path-6" class="cls-4" fill-rule="evenodd"/>
  </g>
</svg>
